docs/themes/v2/source/images/design/close_cursor.svg

<svg fill="none" height="47" viewBox="0 0 47 47" width="47" xmlns="http://www.w3.org/2000/svg"><circle cx="23.646" cy="23.646" fill="#12110d" r="22.646" transform="matrix(.70710678 .70710678 -.70710678 .70710678 23.646 -9.794494)"/><path clip-rule="evenodd" d="m33.5782 15.3354c.3358-.3358.3358-.8803 0-1.2162-.3358-.3358-.8804-.3358-1.2162 0l-8.716 8.716-8.716-8.716c-.3359-.3358-.8804-.3358-1.2162 0-.3358.3359-.3358.8804 0 1.2162l8.716 8.716-8.716 8.716c-.3358.3359-.3358.8804 0 1.2162.3358.3359.8803.3359 1.2162 0l8.716-8.716 8.716 8.716c.3358.3359.8804.3359 1.2162 0 .3358-.3358.3358-.8803 0-1.2162l-8.716-8.716z" fill="#fdfdfc" fill-rule="evenodd"/></svg>

<svg width="47" height="47" viewBox="0 0 47 47" fill="none" xmlns="http://www.w3.org/2000/svg">
<circle cx="23.646" cy="23.646" r="22.646" transform="rotate(45 23.646 23.646)" fill="#12110D"/>
<path fill-rule="evenodd" clip-rule="evenodd" d="M33.5782 15.3354C33.914 14.9996 33.914 14.4551 33.5782 14.1192C33.2424 13.7834 32.6978 13.7834 32.362 14.1192L23.646 22.8352L14.93 14.1192C14.5941 13.7834 14.0496 13.7834 13.7138 14.1192C13.378 14.4551 13.378 14.9996 13.7138 15.3354L22.4298 24.0514L13.7138 32.7674C13.378 33.1033 13.378 33.6478 13.7138 33.9836C14.0496 34.3195 14.5941 34.3195 14.93 33.9836L23.646 25.2676L32.362 33.9836C32.6978 34.3195 33.2424 34.3195 33.5782 33.9836C33.914 33.6478 33.914 33.1033 33.5782 32.7674L24.8622 24.0514L33.5782 15.3354Z" fill="#FDFDFC"/>
</svg>
